X:213
T:score289
L:1/16
Q:1/4=100
M:2/4
I:linebreak $
K:G
 .g.e!mf! .g2.f2 | .^d2.e2 .=d.d.d2 | .^c.c.c2 .=c.c.c2 | .B.e.c.e .B2 z2 | z2 .e.^c .e2.^d2 | %5
 z2 .=d.B .d2.^c2 | z2 .=c.A .c2.B2 | z2!f! B/^d/f/b/ e2 z2 |] %8
